src/svg/speaker.svg

<!--?xml version="1.0" encoding="utf-8"?-->
<!-- Generator: Adobe Illustrator 18.1.1, SVG Export Plug-In . SVG Version: 6.00 Build 0)  -->

<svg version="1.1" id="_x32_" xmlns="http://www.w3.org/2000/svg" xmlns:xlink="http://www.w3.org/1999/xlink" x="0px" y="0px" viewBox="0 0 512 512" style="width: 256px; height: 256px; opacity: 1;" xml:space="preserve">
<style type="text/css">
	.st0{fill:#4B4B4B;}
</style>
<g>
	<path class="st0" d="M489.401,64.386V24.145h-24.145H280.143V0h-48.29v24.145H46.743H22.599v40.241h24.145v249.496H22.599v40.241
		h24.145h418.513h24.145v-40.241h-24.145V64.386H489.401z M78.937,313.882V64.386h354.127v249.496H78.937z" style="fill: rgb(75, 75, 75);"></path>
	<path class="st0" d="M333.797,459.686c-0.77,0-1.493,0.165-2.252,0.228l-58.428-61.234l-0.503-0.008l0.503-0.691h-1.022v-35.809
		h-32.193v37.223l-59.882,60.472c-0.613-0.04-1.202-0.18-1.824-0.18c-14.446,0-26.157,11.71-26.157,26.157
		c0,14.446,11.711,26.157,26.157,26.157c14.446,0,26.157-11.711,26.157-26.157c0-4.103-1.03-7.931-2.712-11.381l55.01-53.736
		l53.508,54.09c-1.572,3.364-2.515,7.074-2.515,11.028c0,14.446,11.711,26.157,26.153,26.157c14.446,0,26.157-11.711,26.157-26.157
		C359.953,471.396,348.242,459.686,333.797,459.686z" style="fill: rgb(75, 75, 75);"></path>
	<path class="st0" d="M230.611,155.416c-12.072-14.564-30.354-23.909-50.734-23.909c-0.864,0-1.862,0-2.956,0.071
		c-0.015,0-0.023,0-0.046,0c-0.024,0-0.032,0-0.071,0v0.008c-34.85,1.635-62.641,30.378-62.649,65.643
		c0.008,36.288,29.442,65.722,65.722,65.73c36.288-0.008,65.722-29.442,65.73-65.73c0.008-15.884-5.667-30.448-14.973-41.79
		L230.611,155.416z M219.341,160.8l-39.156,35.117v-52.439C195.636,143.557,209.532,150.245,219.341,160.8z" style="fill: rgb(75, 75, 75);"></path>
	<rect x="283.161" y="135.532" class="st0" width="96.583" height="24.145" style="fill: rgb(75, 75, 75);"></rect>
	<rect x="283.161" y="183.821" class="st0" width="96.583" height="24.145" style="fill: rgb(75, 75, 75);"></rect>
	<rect x="283.161" y="232.111" class="st0" width="64.39" height="24.145" style="fill: rgb(75, 75, 75);"></rect>
</g>
</svg>

<?xml version="1.0" encoding="UTF-8" standalone="no"?>
<!DOCTYPE svg PUBLIC "-//W3C//DTD SVG 1.1//EN" "http://www.w3.org/Graphics/SVG/1.1/DTD/svg11.dtd">
<svg width="100%" height="100%" viewBox="0 0 512 512" version="1.1" xmlns="http://www.w3.org/2000/svg" xmlns:xlink="http://www.w3.org/1999/xlink" xml:space="preserve" xmlns:serif="http://www.serif.com/" style="fill-rule:evenodd;clip-rule:evenodd;stroke-linejoin:round;stroke-miterlimit:1.41421;">
    <g>
        <path d="M489.401,64.386L489.401,24.145L465.256,24.145L280.143,24.145L280.143,0L231.853,0L231.853,24.145L46.743,24.145L22.599,24.145L22.599,64.386L46.744,64.386L46.744,313.882L22.599,313.882L22.599,354.123L489.402,354.123L489.402,313.882L465.257,313.882L465.257,64.386L489.401,64.386ZM78.937,313.882L78.937,64.386L433.064,64.386L433.064,313.882L78.937,313.882Z" style="fill:rgb(201,202,204);fill-rule:nonzero;"/>
        <path d="M333.797,459.686C333.027,459.686 332.304,459.851 331.545,459.914L273.117,398.68L272.614,398.672L273.117,397.981L272.095,397.981L272.095,362.172L239.902,362.172L239.902,399.395L180.02,459.867C179.407,459.827 178.818,459.687 178.196,459.687C163.75,459.687 152.039,471.397 152.039,485.844C152.039,500.29 163.75,512.001 178.196,512.001C192.642,512.001 204.353,500.29 204.353,485.844C204.353,481.741 203.323,477.913 201.641,474.463L256.651,420.727L310.159,474.817C308.587,478.181 307.644,481.891 307.644,485.845C307.644,500.291 319.355,512.002 333.797,512.002C348.243,512.002 359.954,500.291 359.954,485.845C359.953,471.396 348.242,459.686 333.797,459.686Z" style="fill:rgb(201,202,204);fill-rule:nonzero;"/>
        <path d="M230.611,155.416C218.539,140.852 200.257,131.507 179.877,131.507C179.013,131.507 178.015,131.507 176.921,131.578L176.804,131.578L176.804,131.586C141.954,133.221 114.163,161.964 114.155,197.229C114.163,233.517 143.597,262.951 179.877,262.959C216.165,262.951 245.599,233.517 245.607,197.229C245.615,181.345 239.94,166.781 230.634,155.439L230.611,155.416ZM219.341,160.8L180.185,195.917L180.185,143.478C195.636,143.557 209.532,150.245 219.341,160.8Z" style="fill:rgb(201,202,204);fill-rule:nonzero;"/>
        <rect x="283.161" y="135.532" width="96.583" height="24.145" style="fill:rgb(201,202,204);"/>
        <rect x="283.161" y="183.821" width="96.583" height="24.145" style="fill:rgb(201,202,204);"/>
        <rect x="283.161" y="232.111" width="64.39" height="24.145" style="fill:rgb(201,202,204);"/>
    </g>
</svg>
